P3
8 8
255
32 32 32  32 32 32  32 32 32  32 32 32  32 32 32  32 32 32  32 32 32  32 32 32
32 32 32  220 220 220  220 220 220  220 220 220  220 220 220  220 220 220  220 220 220  32 32 32
32 32 32  220 220 220  80 120 240  80 120 240  80 120 240  80 120 240  220 220 220  32 32 32
32 32 32  220 220 220  80 120 240  240 120 80  240 120 80  80 120 240  220 220 220  32 32 32
32 32 32  220 220 220  80 120 240  240 120 80  240 120 80  80 120 240  220 220 220  32 32 32
32 32 32  220 220 220  80 120 240  80 120 240  80 120 240  80 120 240  220 220 220  32 32 32
32 32 32  220 220 220  220 220 220  220 220 220  220 220 220  220 220 220  220 220 220  32 32 32
32 32 32  32 32 32  32 32 32  32 32 32  32 32 32  32 32 32  32 32 32  32 32 32
